!!!COM: Beethoven
!!!OTL: 24 Variationen uber Venni Amore von V. Righini
!!!Variation: Variation 13 a
**harm	**kern
*	*clefG2
*	*k[b-]
*M2/4	*M2/4
*d:	*d:
=225	=225
*	*
4i	16ff
.	16gg
.	16aa'
.	16bb-'
4vb	16aa'
.	16gg'
.	16ff'
.	16ee'
=226	=226
4VI	16dd
.	16ee
.	16ff'
.	16gg'
4ic	16ff'
.	16ee'
.	16dd'
.	16cc'
=227	=227
4iv	16b-
.	16cc
.	16b-'
.	16a'
4iio	16g'
.	16a'
.	16b-'
.	16cc'
=228	=228
2ib	16a
.	16b-
.	16a'
.	16g'
.	16f'
.	16g'
.	16f'
.	16e'
=229	=229
4i	16d'
.	16e'
.	16f'
.	16g'
4ib	16a'
.	16b-'
.	16b'
.	16cc'
=230	=230
2V	16cc#
.	16dd
.	16dd#
.	16ee
.	16ff
.	16ff#
.	16gg
.	16gg#
=231	=231
4i	16aa
.	16bb-
.	16bb
.	16ccc
4ib	16ccc#
.	16ddd
.	16eee
.	16fff
=232	=232
2V	8eee'
.	8ccc#'
.	8aa'
.	8r
*	*
*-	*-
